source/img/icon-like.svg

<svg version="1.0" id="Layer_1" xmlns="http://www.w3.org/2000/svg" xmlns:xlink="http://www.w3.org/1999/xlink" x="0px" y="0px" width="22px" height="20px" viewBox="0 0 22 20" enable-background="new 0 0 22 20" xml:space="preserve">
  <g id="Page-1">
    <g id="Core" transform="translate(-295.000000, -464.000000)">
      <g id="thumb-up" transform="translate(295.000000, 464.000000)">
        <path id="Shape" fill="#000000" d="M12.383,3.646l-0.637,2.929L11.219,9H13.7h6.2v2c0,0.018,0,0.037,0.001,0.058L17,18H8V8.029 l0.014-0.015L12.383,3.646 M2,10v8V10 M13.2,0L6.6,6.6C6.2,6.9,6,7.4,6,8v10c0,1.1,0.9,2,2,2h9c0.8,0,1.5-0.5,1.8-1.2l3-7.1 C21.9,11.5,21.9,11.2,21.9,11V9H22c0-1.1-0.9-2-2-2h-6.3l1-4.6V2.1c0-0.4-0.2-0.8-0.4-1.1L13.2,0L13.2,0z M4,8H0v12h4V8L4,8z M22,9c0,0.033,0,0.044,0,0.044V9L22,9z"/>
      </g>
    </g>
  </g>
</svg>

<?xml version="1.0" encoding="UTF-8"?>
<svg width="22px" height="20px" viewBox="0 0 22 20" version="1.1" xmlns="http://www.w3.org/2000/svg" xmlns:xlink="http://www.w3.org/1999/xlink">
    <!-- Generator: Sketch 58 (84663) - https://sketch.com -->
    <title>icon-like</title>
    <desc>Created with Sketch.</desc>
    <g id="Page-1" stroke="none" stroke-width="1" fill="none" fill-rule="evenodd">
        <g id="icon-like" fill="#B2B2B2" fill-rule="nonzero">
            <path d="M12.383,3.646 L11.746,6.575 L11.219,9 L13.7,9 L19.9,9 L19.9,11 C19.9,11.018 19.9,11.037 19.901,11.058 L17,18 L8,18 L8,8.029 L8.014,8.014 L12.383,3.646 M2,10 L2,18 L2,10 M13.2,0 L6.6,6.6 C6.2,6.9 6,7.4 6,8 L6,18 C6,19.1 6.9,20 8,20 L17,20 C17.8,20 18.5,19.5 18.8,18.8 L21.8,11.7 C21.9,11.5 21.9,11.2 21.9,11 L21.9,9 L22,9 C22,7.9 21.1,7 20,7 L13.7,7 L14.7,2.4 L14.7,2.1 C14.7,1.7 14.5,1.3 14.3,1 L13.2,0 L13.2,0 Z M4,8 L0,8 L0,20 L4,20 L4,8 L4,8 Z" id="Shape"></path>
        </g>
    </g>
</svg>
